X: 10312
T: Dolly's Hill
R: reel
M: 4/4
K: Dmajor
BG|:EDDC DEFG|ABcd edcB|ceed efed|ABcA GECE|
EDDC DEFG|ABcd edcB|ceed efed|1 ABGE FDDG:|2 ABGE D2Bc||
|:d2Ad FdDc|d2Ad FdGA|Beed efed|cAed cABc|
d2Ad FdDF|B,DA,D B,DA,D|EFGA Bced|1 cAGE FDAc:|2 cAGE FDBG||

